icons/svg/amazon-clouddrive.svg

﻿<?xml version="1.0" encoding="utf-8"?>
<!DOCTYPE svg PUBLIC "-//W3C//DTD SVG 1.1//EN" "http://www.w3.org/Graphics/SVG/1.1/DTD/svg11.dtd">
<svg xmlns="http://www.w3.org/2000/svg" xmlns:xlink="http://www.w3.org/1999/xlink" version="1.1" baseProfile="full" width="24" height="24" viewBox="0 0 24.00 24.00" enable-background="new 0 0 24.00 24.00" xml:space="preserve">
	<path fill="#000000" fill-opacity="1" stroke-width="0.2" stroke-linejoin="round" d="M 4.94118,11.1176C 5.22705,11.1176 5.50339,11.1584 5.76471,11.2345C 5.76514,9.09071 7.50317,7.35294 9.64706,7.35294C 11.2737,7.35294 12.6666,8.35329 13.2443,9.77232C 13.825,9.01656 14.738,8.52941 15.7647,8.52941C 17.519,8.52941 18.9412,9.95157 18.9412,11.7059C 18.9412,11.9548 18.9125,12.1971 18.8584,12.4296C 19.1049,12.3419 19.3704,12.2941 19.6471,12.2941C 20.9466,12.2941 22,13.3476 22,14.6471C 22,15.9465 20.9466,17 19.6471,17C 18.3476,17 6.35882,17 4.94118,17C 3.31681,17 2,15.6832 2,14.0588C 2,12.4345 3.31682,11.1176 4.94118,11.1176 Z "/>
</svg>

<svg xmlns="http://www.w3.org/2000/svg" version="1.1" baseProfile="full" width="24" height="24" viewBox="0 0 24.00 24.00" xml:space="preserve"><path fill="#000" fill-opacity="1" stroke-width=".2" stroke-linejoin="round" d="M4.94 11.118c.287 0 .563.04.825.117 0-2.144 1.738-3.882 3.882-3.882 1.627 0 3.02 1 3.597 2.42.58-.756 1.494-1.244 2.52-1.244 1.755 0 3.177 1.422 3.177 3.176 0 .25-.027.49-.082.724.247-.088.512-.136.79-.136 1.3 0 2.352 1.054 2.352 2.353 0 1.3-1.053 2.353-2.353 2.353H4.94C3.318 17 2 15.683 2 14.06c0-1.626 1.317-2.942 2.94-2.942z"/></svg>
